X:8
T:Shepherds Hornpipe. CAM2.[08], The
T:Liverpool Hp,aka. CAM2.[08]
B:Anon MS#2, early 19thC, Northumbria, Cocks Coll.
Z:Village Music Project 2016 Steve Mansfield
M:C|
L:1/8
Q:2/4=60
N: Irregular bars transcribed as in Mss
K:D
AG | FDFA dfaf | gefd dcBA | GBGB FAFA | EFGA GFED |
FDFA dfaf | gefd dcBA | f2fg afdf | gedc d2d2 | d4 :|
|: dffd cece | BddB BAGF | GBGB FAFA | EFGA GFED |
FDFA dfaf | gefd dcBA | f2fg afdf | gedc d2d2d2 :|

